X:168
T:Porter or Buttermilk? (hornpipe) * 
B:CRE4.220
S:Sheahan MS (gan ainm)
F:file ID: cre.4/168porter
L:1/8
Q:150
M:4/4
R:hornpipe
K:D
AG|FAdg fdAG|FAdg fdAG|FAdf g2 fg|edcB AGFE|
FAdg fdAG|FAdg fdAG|FAdf gbag|fdec d2:|
fg|afdf g3f|edcB AGFD|FAdf g2 fg|edcB A2 fg|
afdf g2 fg|edcB AGFD|FAdf GBdg|(3fed ec d2:|

%%%

